!!!!SEGMENT: pl-sa--552-a-ix-32--027_anonim--valc.krn
!!!cenid: 18xx:538
!!!COM: Anonim
!!!COM-rismid: pe30004985
!!!CDT:
!!!CNT:
!!!OTL: Valc
!!!PDT:
!!!AGN: Secular; Waltz
!!!SMS-siglum: PL-SA
!!!SMS-shelfmark: 552/A IX 32
!!!SMS-shelfwork: 027 W
!!!SMS-variant:
!!!SMS-altvar:
!!!NIFC-rismid: 1001069569
!!!URL-scan: http://bc.bdsandomierz.pl/dlibra/publication/1308/edition/1276/content
!!!ONB-nifc: Str. 14, s. 1-2
**kern	**kern
*part1	*part1
*staff2	*staff1
*I'keyb	*
*clefF4	*clefG2
*k[f#]	*k[f#]
*M3/8	*M3/8
=1	=1
!	!LO:TX:a:i:t=Valc
!LO:TX:a:t=P:problem:metrum tylko na dolnej pięciolinii z kreską ułamkową	!
8G\L	4b\
8B\	.
8d\J	8dd\
=2	=2
*rep	*
!LO:TX:a:t=P:problem:brak oznaczeń cyfrowych nad powtórzeniami	!
8G\L	16gg\LL
.	16b\ 16dd
8B\	16dd\
.	16gg\J
8d\J	8bb\J
*Xrep	*
=3	=3
8F#\L	16aa\LL
.	16dd\ 16ff#
8A\	16ff#\
.	16dd\J
!	!LO:N:vis=16
8d\J	8ccc\J
=4	=4
8G\L	16bb\LL
!	!LO:TX:a:t=P:problem:kropka nad nutą
.	16dd\
8B\	16gg\
.	16bb\J
!	!LO:N:vis=16
8d\J	8ddd\J
=5	=5
*rep	*
8G\L	8b\L
8B\	8dd\
8d\J	8gg\J
*Xrep	*
=6	=6
*rep	*
8G\L	16gg\LL
.	16b\
8B\	16dd\
.	16b\J
!	!LO:N:vis=16
!	!LO:N:vis=16
8d\J	8bb\J
*Xrep	*
=7	=7
8F#\L	16aa\LL
.	16dd\
8A\	16ff#\
.	16aa\
8d\J	16ccc\
.	16aa\JJ
=8	=8
!LO:TX:a:t=P:problem:mixed beam	!
8G\L 8B	4.gg\
8GG/J	.
!LO:TX:a:t=P:problem:niewyraźny zapis	!
8E/	.
=9:|!|:	=9:|!|:
8A\L	16ff#\LL
.	16dd\
8d\ 8f#	16ff#\
.	16aa\J
8d\J 8f#	8ddd\J
=10	=10
8A\L	16ccc#X\LL
.	16ee\
8e\ 8g	16aa\
.	16ccc#\J
!	!LO:N:vis=16
8e\J 8g	8eee\J
=11	=11
*rep	*
8A\L	16ddd#X\LL
.	16eee\
8e\ 8g	16ccc#X\
.	16aa\
8e\J 8g	16gg\
.	16ee\JJ
*Xrep	*
=12	=12
8A\L	16ff#\LL
.	16dd\
8d\ 8f#	16ff#\
.	16aa\J
8d\J 8f#	8ddd\J
!!LO:LB:g=original
=13	=13
8A\L	16ccc#X\LL
.	16ee\
8e\ 8g	16aa\
.	16ccc#\J
8e\J 8g	8eee\J
=14	=14
*rep	*
8A\L	16ddd#X\LL
.	16eee\
8e\ 8g	16ccc#X\
.	16aa\
8e\J 8g	16gg\
.	16ee\JJ
*Xrep	*
=15	=15
8d/L 8f#	4dd\
8D/J	.
!	!LO:TX:a:t=P:problem:kreska z obustronną repetycją
8r	8r
=:|!	=:|!
*-	*-
!!!system-decoration: {(s1,s2)}
!!!RDF**kern: > = above
!!!RDF**kern: < = below
!!!EED: Mateusz Mrugas
!!!EST: 2020-12-12
!!!ENC:Anastazja Marusiak
!!!END:2020-06-18
